X:1
T:Polska frn Medelpad
R:Polska
O:Medelpad
M:3/4
L:1/16
K:C
"Am" ABA^G A2B2 cBcd | e2eg "D" ^f2ed f2"Am"e2 | ABA^G A2B2 cBcd | "E" d2e2 BeB^G E4 |
"Am" ABA^G A2B2 cBcd | e2eg "D" ^f2ed f2"Am"e2 | e2ae "Dm" Adf2 "Am" Acec | "Em" EGBG "Am" A8 :|
"Am" z2 a2 g2a2 "Dm" f2(3fgf | "Am" e2ae "Dm" Adfa "Am" Acec | A2Bc "Dm" d2fd "Am" c2BA | "Em" A2G2 G2e2 "E7" E4 |
"Am" z2 a2 g2a2 "Dm" f2(3fgf | "Am" e2ae "Dm" Adfa "Am" Acec | A2Bc "Dm" d2Bd "Am" cecA | "Em" EGBG "Am" A8 |]
